images/witter.svg

<svg width="24" height="21" viewBox="0 0 24 21" fill="none" xmlns="http://www.w3.org/2000/svg">
<path d="M24 3.05705C23.117 3.44905 22.168 3.71305 21.172 3.83205C22.189 3.22305 22.97 2.25805 23.337 1.10805C22.386 1.67205 21.332 2.08205 20.21 2.30305C19.313 1.34605 18.032 0.748047 16.616 0.748047C13.437 0.748047 11.101 3.71405 11.819 6.79305C7.728 6.58805 4.1 4.62805 1.671 1.64905C0.381 3.86205 1.002 6.75705 3.194 8.22305C2.388 8.19705 1.628 7.97605 0.965 7.60705C0.911 9.88805 2.546 12.022 4.914 12.497C4.221 12.685 3.462 12.729 2.69 12.581C3.316 14.537 5.134 15.96 7.29 16C5.22 17.623 2.612 18.348 0 18.04C2.179 19.437 4.768 20.252 7.548 20.252C16.69 20.252 21.855 12.531 21.543 5.60605C22.505 4.91105 23.34 4.04405 24 3.05705Z" fill="white"/>
</svg>

<svg width="24" height="21" fill="none" xmlns="http://www.w3.org/2000/svg"><path d="M24 3.057a9.83 9.83 0 0 1-2.828.775 4.932 4.932 0 0 0 2.165-2.724 9.864 9.864 0 0 1-3.127 1.195A4.916 4.916 0 0 0 16.616.748c-3.179 0-5.515 2.966-4.797 6.045A13.978 13.978 0 0 1 1.671 1.649a4.93 4.93 0 0 0 1.523 6.574 4.903 4.903 0 0 1-2.229-.616c-.054 2.281 1.581 4.415 3.949 4.89a4.935 4.935 0 0 1-2.224.084A4.928 4.928 0 0 0 7.29 16 9.9 9.9 0 0 1 0 18.04a13.94 13.94 0 0 0 7.548 2.212c9.142 0 14.307-7.721 13.995-14.646A10.025 10.025 0 0 0 24 3.057Z" fill="#fff"/></svg>
